packages/core/src/svg/icon-lips.svg

<?xml version="1.0" encoding="UTF-8"?>
<svg xmlns="http://www.w3.org/2000/svg" width="100%" height="100%" viewBox="0 0 24 24">
  <path d="M11.9999824,16.9076194 C8.50979285,16.9076194 5.5196113,15.5733282 3.06349734,13.166267 C4.3163616,13.1247284 5.17030793,12.8429472 5.88450481,12.6050923 C6.44511777,12.4185724 6.88799709,12.271379 7.41627104,12.271379 C8.37527523,12.271379 8.86720731,12.5502108 9.43705496,12.8735306 C10.0663839,13.2303481 10.7788603,13.6350948 11.9988237,13.6350948 C13.2326568,13.6350948 13.94573,13.230945 14.5750239,12.8700895 C15.1385512,12.5484902 15.6252866,12.271379 16.5808146,12.271379 C17.1102824,12.271379 17.5542502,12.4191693 18.1160219,12.6068128 C18.829657,12.8441059 19.6818828,13.1264138 20.931306,13.1714988 C18.4722776,15.5744869 15.4866959,16.9076194 11.9999824,16.9076194 M5.45321276,9.03751377 C6.30772089,8.18360256 7.09003685,7.63394483 8.45554338,7.63394483 C10.0865738,7.63394483 10.3608409,8.45207598 12.0005794,8.45207598 C13.6402827,8.45207598 13.9151116,7.64374134 15.5461772,7.63394483 C16.909928,7.6275894 17.6916822,8.18300564 18.5485078,9.03751377 C19.3752767,9.86487961 19.3672007,9.84584841 21.1680022,11.5404333 C20.0588902,11.5265637 19.337741,11.2869531 18.6374137,11.0536979 C18.01904,10.847585 17.3793176,10.633958 16.5842908,10.633958 C15.1951532,10.633958 14.4036026,11.0854751 13.7678831,11.4480512 C13.2286539,11.7557457 12.8025234,11.9982707 12.0022999,11.9982707 C11.2147872,11.9982707 10.7898155,11.7563426 10.2488307,11.4497717 C9.60854649,11.0865987 8.81236092,10.633958 7.41974722,10.633958 C6.62584399,10.633958 5.98843907,10.8464263 5.37122408,11.0519423 C4.67145861,11.2829151 3.95090628,11.5236844 2.84179433,11.5346396 C4.63451981,9.84584841 4.62700564,9.86431781 5.45321276,9.03751377 M19.7061107,7.88279013 C18.6668734,6.84639705 17.4543539,6 15.8123682,6 C13.6356478,6 13.1991942,6.81813114 12.001703,6.81813114 C10.8042469,6.81813114 10.3643171,6 8.45554338,6 C6.54673457,6 5.33256475,6.84351779 4.29213368,7.88279013 C3.19165951,8.97978812 0,12.2707821 0,12.2707821 C2.18068818,15.2730776 5.9988325,18.546796 12.0011412,18.546796 C18.0034498,18.546796 21.8152387,15.2730776 24,12.2707821 C24,12.2707821 20.8071818,8.97978812 19.7061107,7.88279013" />
</svg>

<?xml version="1.0" encoding="UTF-8"?><svg viewBox="0 0 24 24" xmlns="http://www.w3.org/2000/svg"><path d="m12 16.908c-3.4902 0-6.4804-1.3343-8.9365-3.7414 1.2529-0.041539 2.1068-0.32332 2.821-0.56117 0.56061-0.18652 1.0035-0.33371 1.5318-0.33371 0.959 0 1.4509 0.27883 2.0208 0.60215 0.62933 0.35682 1.3418 0.76156 2.5618 0.76156 1.2338 0 1.9469-0.40415 2.5762-0.76501 0.56353-0.3216 1.0503-0.59871 2.0058-0.59871 0.52947 0 0.97344 0.14779 1.5352 0.33543 0.71364 0.23729 1.5659 0.5196 2.8153 0.56469-2.459 2.403-5.4446 3.7361-8.9313 3.7361m-6.5468-7.8701c0.85451-0.85391 1.6368-1.4036 3.0023-1.4036 1.631 0 1.9053 0.81813 3.545 0.81813 1.6397 0 1.9145-0.80833 3.5456-0.81813 1.3638-0.0063554 2.1455 0.54906 3.0023 1.4036 0.82677 0.82737 0.81869 0.80833 2.6195 2.5029-1.1091-0.01387-1.8303-0.25348-2.5306-0.48674-0.61837-0.20611-1.2581-0.41974-2.0531-0.41974-1.3891 0-2.1807 0.45152-2.8164 0.81409-0.53923 0.30769-0.96536 0.55022-1.7656 0.55022-0.78751 0-1.2125-0.24193-1.7535-0.5485-0.64028-0.36317-1.4365-0.81581-2.8291-0.81581-0.7939 0-1.4313 0.21247-2.0485 0.41798-0.69977 0.23097-1.4203 0.47174-2.5294 0.4827 1.7927-1.6888 1.7852-1.6703 2.6114-2.4971m14.253-1.1547c-1.0392-1.0364-2.2518-1.8828-3.8937-1.8828-2.1767 0-2.6132 0.81813-3.8107 0.81813-1.1975 0-1.6374-0.81813-3.5462-0.81813-1.9088 0-3.123 0.84352-4.1634 1.8828-1.1005 1.097-4.2921 4.388-4.2921 4.388 2.1807 3.0023 5.9988 6.276 12.001 6.276 6.0023 0 9.8141-3.2737 11.999-6.276 0 0-3.1928-3.291-4.2939-4.388"/></svg>
